X:81
T:Scottish suédoise
S:
Q:100
M:4/4
L:1/8
K:C
|:cBA^G A2 E2|FGFE D4|E2E2 ^G2G2|B2B2 EFED|C2A,2|\
cBA^G A2 E2|FGFE D4|E2E2 ^G2G2|BdcB A2A2|A4:|
|:G2G2 G4|GFEF G4|A2A2 A2AB|c2A2 G4|\
B2B2 c2c2|d2d2 efed|c2c2 BcBA|^G2E2 EFED|C2A,2|\
cBA^G A2 E2|FGFE D4|E2E2 ^G2G2|BdcB A2A2|A4:|

